X: 43556
T: Youghal Quay
R: reel
M: 4/4
K: Gmajor
||Bc{d}cB G2BG|DGBG DGBG|Bc{d}cB GBAG|FGAB cABA|
Bc{d}cB G2BG|DGBG DGBc|dBcA {A}BGAF|DEFG AB{c}BA|
Bc{d}cB DGBG|DGBG DGBG|Bc{d}cB GBAG|FGAB cAdA|
Bc{d}cB G2BG|DGBG DGBc|dBcA BGAF|DEFG ABcA||
Bcde dBB/c/B|dBgB aBgd|Bcde dBcB|A2ag fdcA|
Bcde dBB/c/B|dBgB aBgB|{g}fg{g}fe defg|{g}a2ag fdcA|
Bcde dBB/c/B|dBgB aBgd|{c}Bcde dBcB|A2ag fdcA|
Bcde dBB/c/B|dBgB aBgB|fgfe defg|a2ag fdcA||

